X:1
T:Title
%%score 1 { ( 2 4 ) | ( 3 5 ) }
L:1/8
Q:1/4=140
M:3/8
K:C
V:1 treble nm="Voice"
V:2 bass nm="Piano"
V:4 bass 
V:3 bass 
V:5 bass 
V:1
"^Prestissimo"!p! G | c2 c | c B d | G2 G | E2 E | D C E | G2 E | D2 z | z2!mf! G | c2 c | c B d | %11
 G2 G | e2 e | (ec) A | (AG) (F/D/) | C2 z | z2 c | (dB) G | G2 F | (EG) C | (ED) G | c3 | C2 |] %23
V:2
!p! (G,/^F,/G,/F,/ | G,/^F,/G,/F,/G,/F,/ | G,/^F,/G,/F,/G,/F,/ | G,/^F,/G,/F,/G,/F,/ | %4
 G,/^F,/G,/F,/G,/F,/ | G,/^F,/G,/F,/G,/F,/) | (G,/^F,/G,/F,/G,/F,/) | (G,/^F,/G,/F,/G,/F,/ | %8
 G,/^F,/G,/F,/G,/F,/ |!<(! G,/^F,/G,/F,/G,/F,/!<)! | G,/^F,/G,/F,/G,/F,/ | G,/^F,/G,/F,/G,/F,/) | %12
!f! (G,/^F,/G,/F,/G,/F,/) |!>(! (G,/^F,/G,/F,/G,/F,/) | (G,/^F,/G,/F,/G,/!>)!F,/) | %15
!p! (G,/^F,/G,/F,/G,/F,/ | G,/^F,/G,/F,/G,/F,/ | G,/^F,/G,/F,/G,/F,/) | (G,/^F,/G,/F,/G,/F,/ | %19
 G,/^F,/G,/F,/G,/F,/) | (G,/^F,/G,/F,/G,/F,/ | G,/^F,/G,/F,/G,/F,/) | [E,G,]2 |] %23
V:3
 (G,,/^F,,/G,,/F,,/ | G,,/^F,,/G,,/F,,/G,,/F,,/ | G,,/^F,,/G,,/F,,/G,,/F,,/ | %3
 G,,/^F,,/G,,/F,,/G,,/F,,/ | G,,/^F,,/G,,/F,,/G,,/F,,/ | G,,/^F,,/G,,/F,,/G,,/F,,/) | %6
 (G,,/^F,,/G,,/F,,/G,,/F,,/) | (G,,/^F,,/G,,/F,,/G,,/F,,/ | G,,/^F,,/G,,/F,,/G,,/F,,/ | %9
 G,,/^F,,/G,,/F,,/G,,/F,,/ | G,,/^F,,/G,,/F,,/G,,/F,,/ | G,,/^F,,/G,,/F,,/G,,/F,,/) | %12
 (G,,/^F,,/G,,/F,,/G,,/F,,/) | (G,,/^F,,/G,,/F,,/G,,/F,,/) | (G,,/^F,,/G,,/F,,/G,,/F,,/) | %15
 (G,,/^F,,/G,,/F,,/G,,/F,,/ | G,,/^F,,/G,,/F,,/G,,/F,,/ | G,,/^F,,/G,,/F,,/G,,/F,,/) | %18
 (G,,/^F,,/G,,/F,,/G,,/F,,/ | G,,/^F,,/G,,/F,,/G,,/F,,/) | (G,,/^F,,/G,,/F,,/G,,/F,,/ | %21
 G,,/^F,,/G,,/F,,/G,,/F,,/) | [C,,C,]2 |] %23
V:4
 x2 | x3 | x3 | x3 | x3 | x3 | x3 | x3 | x3 | x3 | x3 | x3 | x3 | x3 | x3 | x3 | x3 | x3 | x3 | %19
 x3 | x3 | x3 | G,2 |] %23
V:5
 x2 | x3 | x3 | x3 | x3 | x3 | x3 | x3 | x3 | x3 | x3 | x3 | x3 | x3 | x3 | x3 | x3 | x3 | x3 | %19
 x3 | x3 | x3 | [C,,G,,]2 |] %23

